assets/images/moving4.svg

<svg width="64" height="64" viewBox="0 0 64 64" fill="none" xmlns="http://www.w3.org/2000/svg">
<path d="M48.7236 54.3223H39.9142L48.3602 46.1405C52.6183 41.7621 55.0006 35.8955 55.0006 29.788C55.0006 23.6805 52.6183 17.8139 48.3602 13.4354C46.3061 11.2499 43.8271 9.50698 41.0754 8.31355C38.3237 7.12013 35.3572 6.50135 32.3578 6.49516C29.3584 6.48898 26.3894 7.09551 23.6328 8.27758C20.8762 9.45964 18.39 11.1923 16.3269 13.3694C12.0543 17.7535 9.66309 23.6332 9.66309 29.755C9.66309 35.8767 12.0543 41.7564 16.3269 46.1405L24.6848 54.3223H17.3069C16.9077 54.3556 16.5357 54.5376 16.2644 54.8323C15.9932 55.1271 15.8427 55.513 15.8427 55.9135C15.8427 56.3141 15.9932 56.7 16.2644 56.9947C16.5357 57.2895 16.9077 57.4715 17.3069 57.5047H47.4242C47.84 57.4989 48.2365 57.329 48.5274 57.0319C48.8183 56.7348 48.9799 56.3348 48.9769 55.919C48.9772 55.6788 48.9239 55.4415 48.8211 55.2243C48.7182 55.0072 48.5683 54.8157 48.3823 54.6637L48.7236 54.3223ZM47.8757 54.994C47.92 55.0131 47.9608 55.0391 47.9968 55.0711C48.0349 55.0944 48.0684 55.1242 48.096 55.1592C48.0326 55.0796 47.9585 55.0092 47.8757 54.95V54.994Z" fill="white"/>
<path d="M48.7236 54.3223H39.9142L48.3602 46.1405C52.6183 41.7621 55.0006 35.8955 55.0006 29.788C55.0006 23.6805 52.6183 17.8139 48.3602 13.4354C46.3061 11.2499 43.8271 9.50698 41.0754 8.31355C38.3237 7.12013 35.3572 6.50135 32.3578 6.49516C29.3584 6.48898 26.3894 7.09551 23.6328 8.27758C20.8762 9.45964 18.39 11.1923 16.3269 13.3694C12.0543 17.7535 9.66309 23.6332 9.66309 29.755C9.66309 35.8767 12.0543 41.7564 16.3269 46.1405L24.6848 54.3223H17.3069C16.9077 54.3556 16.5357 54.5376 16.2644 54.8323C15.9932 55.1271 15.8427 55.513 15.8427 55.9135C15.8427 56.3141 15.9932 56.7 16.2644 56.9947C16.5357 57.2895 16.9077 57.4715 17.3069 57.5047H47.4242C47.841 57.4961 48.2375 57.3237 48.5281 57.0248C48.8187 56.726 48.9799 56.3248 48.9769 55.908C48.9763 55.6695 48.9226 55.4341 48.8198 55.2189C48.7169 55.0036 48.5675 54.814 48.3823 54.6637L48.7236 54.3223ZM25.5658 54.3223L25.1363 53.8488C25.4822 54.1985 25.85 54.5258 26.2375 54.8289L25.5658 54.3223ZM37.8219 52.0098C36.3655 53.4436 34.4038 54.2472 32.3601 54.2472C30.3163 54.2472 28.3546 53.4436 26.8982 52.0098L18.5292 43.795C14.8642 40.0183 12.8144 34.9626 12.8144 29.6999C12.8144 24.4372 14.8642 19.3815 18.5292 15.6048C20.3059 13.7332 22.445 12.2428 24.8161 11.2243C27.1873 10.2059 29.7409 9.68065 32.3215 9.68065C34.9021 9.68065 37.4558 10.2059 39.8269 11.2243C42.198 12.2428 44.3371 13.7332 46.1138 15.6048C49.7872 19.3793 51.8427 24.4384 51.8427 29.7054C51.8427 34.9724 49.7872 40.0315 46.1138 43.806L37.7559 52.0098H37.8219ZM39.1654 54.3223C38.9561 54.5095 38.7359 54.6967 38.5047 54.8729C38.8922 54.574 39.26 54.2503 39.6058 53.9039L39.1654 54.3223ZM47.9748 55.0601L48.0739 55.1592C48.0077 55.0952 47.9337 55.0397 47.8537 54.994L47.9748 55.0601ZM47.4022 56.9541C47.6022 56.9509 47.7968 56.8885 47.9614 56.7749C48.126 56.6612 48.2533 56.5014 48.3272 56.3155C48.2548 56.498 48.1309 56.6555 47.9706 56.7689C47.8103 56.8823 47.6205 56.9467 47.4242 56.9541H47.4022Z" fill="#022F45"/>
<path d="M39.6056 19.7122L35.0467 17.3777C34.204 16.9431 33.2695 16.7163 32.3213 16.7163C31.3731 16.7163 30.4386 16.9431 29.5959 17.3777L25.1361 19.7122C24.1259 20.2554 23.2838 21.0651 22.7014 22.0532C22.119 23.0414 21.8185 24.1703 21.8325 25.3172V32.2656C21.8181 33.4112 22.1185 34.5387 22.7011 35.5252C23.2836 36.5117 24.1259 37.3192 25.1361 37.8596L29.6509 40.2052C30.4924 40.6379 31.4246 40.8643 32.3708 40.8659C33.317 40.8643 34.2493 40.6379 35.0908 40.2052L39.6056 37.8596C40.6158 37.3192 41.4581 36.5117 42.0406 35.5252C42.6232 34.5387 42.9236 33.4112 42.9092 32.2656V25.3172C42.9232 24.1703 42.6227 23.0414 42.0403 22.0532C41.4579 21.0651 40.6158 20.2554 39.6056 19.7122ZM38.141 22.5202L33.428 24.9648C33.1071 25.1273 32.7525 25.212 32.3929 25.212C32.0332 25.212 31.6786 25.1273 31.3578 24.9648L26.6337 22.5202L30.9503 20.3178H31.0714C31.4793 20.1052 31.9329 19.9955 32.3929 19.9985C32.8494 19.9942 33.2999 20.1039 33.7033 20.3178L38.141 22.5202ZM32.3929 19.3488C31.8457 19.3468 31.3059 19.4752 30.8182 19.7232C31.2993 19.4785 31.8311 19.3503 32.3708 19.3488H32.3929ZM24.3212 24.8767C24.3416 24.6984 24.3747 24.5217 24.4203 24.3481C24.3895 24.5228 24.3711 24.6994 24.3652 24.8767H24.3212ZM30.7521 37.8486C31.2392 38.0997 31.7788 38.2318 32.3268 38.234C31.7937 38.2249 31.27 38.093 30.7962 37.8486H30.7521ZM39.8038 32.2656C39.8087 32.8336 39.6571 33.3919 39.3658 33.8794C39.0744 34.3669 38.6545 34.7649 38.152 35.0296L33.6812 37.3311C33.2748 37.5424 32.8234 37.6528 32.3653 37.6528C31.9072 37.6528 31.4559 37.5424 31.0494 37.3311L26.5346 34.9966C26.0321 34.7318 25.6122 34.3339 25.3209 33.8464C25.0295 33.3588 24.878 32.8005 24.8828 32.2326V25.3172C24.8828 25.3172 24.8828 25.2291 24.8828 25.185L29.9152 27.7948C30.6688 28.1858 31.5053 28.3899 32.3543 28.3899C33.2033 28.3899 34.0398 28.1858 34.7934 27.7948L39.8479 25.2181V32.2656H39.8038ZM42.3586 25.3172C42.3561 24.7855 42.2858 24.2563 42.1493 23.7425C42.3007 24.2544 42.3858 24.7836 42.4026 25.3172H42.3586Z" fill="#022F45"/>
</svg>

<svg width="64" height="64" fill="none" xmlns="http://www.w3.org/2000/svg"><path d="M48.724 54.322h-8.81l8.446-8.181a23.455 23.455 0 0 0 0-32.706 22.023 22.023 0 0 0-32.033-.066 23.477 23.477 0 0 0 0 32.772l8.358 8.181h-7.378a1.597 1.597 0 0 0 0 3.183h30.117a1.574 1.574 0 0 0 1.553-1.586 1.62 1.62 0 0 0-.595-1.255l.342-.342Zm-.848.672a.45.45 0 0 1 .12.077.376.376 0 0 1 .1.088 1.098 1.098 0 0 0-.22-.209v.044Z" fill="#fff"/><path d="M48.724 54.322h-8.81l8.446-8.181a23.455 23.455 0 0 0 0-32.706 22.023 22.023 0 0 0-32.033-.066 23.477 23.477 0 0 0 0 32.772l8.358 8.181h-7.378a1.597 1.597 0 0 0 0 3.183h30.117a1.585 1.585 0 0 0 1.553-1.597 1.608 1.608 0 0 0-.595-1.244l.342-.342Zm-23.158 0-.43-.473c.346.35.714.677 1.102.98l-.672-.507Zm12.256-2.312a7.785 7.785 0 0 1-10.924 0l-8.369-8.215a20.24 20.24 0 0 1 0-28.19 19.018 19.018 0 0 1 27.585 0 20.218 20.218 0 0 1 0 28.201l-8.358 8.204h.066Zm1.343 2.312a10.976 10.976 0 0 1 .44-.418l-.44.418Zm8.81.738.099.1a1.106 1.106 0 0 0-.22-.166l.12.066Zm-.573 1.894a1.013 1.013 0 0 0 .022 0h-.022Z" fill="#022F45"/><path d="m39.606 19.712-4.56-2.334a5.946 5.946 0 0 0-5.45 0l-4.46 2.334a6.277 6.277 0 0 0-3.303 5.605v6.949a6.255 6.255 0 0 0 3.303 5.594l4.515 2.345a5.97 5.97 0 0 0 2.72.66 5.97 5.97 0 0 0 2.72-.66l4.515-2.345a6.253 6.253 0 0 0 3.303-5.594v-6.949a6.278 6.278 0 0 0-3.303-5.605ZM38.14 22.52l-4.713 2.445a2.291 2.291 0 0 1-2.07 0l-4.724-2.445 4.316-2.202h.121a2.82 2.82 0 0 1 1.322-.32c.456-.004.907.106 1.31.32l4.438 2.202Zm-5.748-3.171a3.446 3.446 0 0 0-.022 0h.022Zm-8.072 5.528c.02-.179.054-.355.1-.529-.031.175-.05.351-.056.529h-.044Zm6.431 12.972a3.467 3.467 0 0 0 1.575.385 3.468 3.468 0 0 1-1.53-.385h-.045Zm9.052-5.583a3.094 3.094 0 0 1-1.652 2.764l-4.47 2.301a2.853 2.853 0 0 1-2.633 0l-4.514-2.334a3.094 3.094 0 0 1-1.652-2.764v-7.048l5.032 2.61a5.296 5.296 0 0 0 4.878 0l5.055-2.577v7.048h-.044Zm2.555-6.949a6.247 6.247 0 0 0-.21-1.575c.152.512.237 1.042.254 1.575h-.044Z" fill="#022F45"/></svg>
